src/assets/icons/visa.svg

<svg width="75" height="24" viewBox="0 0 75 24" fill="none" xmlns="http://www.w3.org/2000/svg">
<rect width="75" height="24" fill="#1E1E1E"/>
<g id="Home page - b2b" clip-path="url(#clip0_0_1)">
<rect width="1920" height="13222" transform="translate(-260 -887)" fill="white"/>
<g id="First screen">
<rect id="bg" x="-260" y="-791" width="1920" height="916" fill="white"/>
<g id="Text">
<g id="Payment methods">
<g id="Frame 2172">
<g id="Visa" clip-path="url(#clip1_0_1)">
<rect width="74.5021" height="32" transform="translate(0 -4)" fill="white"/>
<path id="Union" fill-rule="evenodd" clip-rule="evenodd" d="M41.9264 1.8908C45.522 -0.471676 50.2221 -0.402337 54.1991 0.905199C54.0159 2.62382 53.7286 4.32757 53.4314 6.02638C51.3167 5.01106 48.8502 4.56035 46.5522 5.14974C45.4676 5.40728 44.3978 6.75444 45.2992 7.76481C46.1764 8.66319 47.2925 9.23275 48.4096 9.80283C49.6513 10.4365 50.8942 11.0708 51.8119 12.1579C53.8326 14.1341 53.7583 17.4624 52.3815 19.7753C50.9254 22.217 48.1222 23.4949 45.3933 23.8614C42.3078 24.1833 39.0935 23.9901 36.2011 22.7965C36.3475 21.9698 36.4827 21.1409 36.6179 20.3118L36.618 20.3116C36.7662 19.4023 36.9145 18.4929 37.0777 17.5862C39.5788 18.8789 42.4811 19.5277 45.2694 18.9086C46.2154 18.5916 47.1911 17.814 47.1069 16.7046C46.8354 15.5541 45.7543 14.9772 44.77 14.452L44.7699 14.4519C44.6229 14.3735 44.478 14.2962 44.3383 14.2183C42.2533 13.1931 40.0097 11.9351 39.0737 9.68153C37.9098 6.83368 39.4501 3.50046 41.9264 1.8908ZM0 0.756212C0.761367 0.364212 1.60592 0.391014 2.43979 0.417477C2.70163 0.425786 2.96241 0.434062 3.21924 0.429328C4.31964 0.458112 5.42103 0.449282 6.52252 0.440452C7.88496 0.429529 9.24755 0.418606 10.6086 0.478856C11.718 0.473903 12.6689 1.39512 12.8225 2.46988C13.2639 4.60903 13.6843 6.75303 14.1049 8.89818L14.105 8.89894C14.4203 10.5069 14.7357 12.1155 15.0602 13.7232L15.0616 13.728C15.1835 14.2802 15.2826 14.8407 15.3818 15.4014L15.3818 15.4014L15.3818 15.4014L15.3818 15.4015C15.4356 15.7058 15.4894 16.0102 15.5469 16.3133C17.1833 11.8507 18.8373 7.39167 20.491 2.93316L20.4912 2.93271L20.4919 2.93077L21.4158 0.43964C23.5504 0.464404 25.6801 0.454498 27.8097 0.43964C26.4138 3.77589 25.0583 7.12871 23.7029 10.4814C21.9133 14.9081 20.1237 19.3346 18.2412 23.7227C16.6603 23.6738 15.0793 23.6792 13.4984 23.6846C12.9992 23.6863 12.5 23.688 12.0008 23.688C11.02 20.105 10.0744 16.5121 9.12865 12.9191L9.12863 12.919L9.12854 12.9187L9.12851 12.9186C8.29773 9.76224 7.46693 6.60581 6.6123 3.45589C7.46599 3.95724 8.29175 4.52163 9.07394 5.14377C8.2916 4.52147 7.46569 3.95694 6.61182 3.45548C4.68475 2.29921 2.5487 1.59574 0.424107 0.896039L0.424106 0.896038L0.424105 0.896038L0 0.756212ZM36.2206 0.428538C34.2148 0.443397 32.209 0.443397 30.2031 0.428538C29.7013 3.65145 29.1747 6.87009 28.6482 10.0884L28.6481 10.0886L28.6481 10.0889L28.648 10.0892C27.9067 14.6205 27.1654 19.1511 26.4936 23.6918C28.4945 23.6967 30.4904 23.6967 32.4863 23.6918C33.2011 19.0825 33.9491 14.4784 34.697 9.87436C35.2084 6.72628 35.7198 3.57823 36.2206 0.428538ZM61.6499 2.81366C62.0511 1.74386 62.8435 0.579951 64.0965 0.515565C65.2452 0.435283 66.3976 0.447403 67.5492 0.459514C68.2447 0.466829 68.9399 0.47414 69.6336 0.461085C70.6949 5.44591 71.7337 10.4328 72.7723 15.4191L72.7724 15.4195L72.7725 15.4199C73.3478 18.1818 73.9231 20.9434 74.5021 23.7045C73.576 23.707 72.6498 23.7082 71.7237 23.7095C70.7975 23.7107 69.8714 23.7119 68.9452 23.7144C68.6827 22.5505 68.4351 21.3817 68.1974 20.2078C67.6831 20.2078 67.169 20.208 66.6551 20.2082C64.6003 20.209 62.5481 20.2098 60.4959 20.1979C60.0849 21.3717 59.6589 22.5456 59.2182 23.7095C57.1182 23.7095 55.0183 23.7095 52.9184 23.7144C54.2326 20.5588 55.5529 17.4053 56.8734 14.2515L56.8749 14.2477L56.875 14.2476C58.47 10.438 60.0651 6.62807 61.6499 2.81366ZM62.244 15.4124C62.6652 14.3295 63.0577 13.2345 63.4502 12.1396C64.1006 10.3252 64.7511 8.51062 65.5325 6.75002C65.8056 8.89847 66.2715 11.0148 66.7372 13.1305L66.7378 13.133C66.9053 13.8941 67.0728 14.655 67.2313 15.4174C65.5672 15.4174 63.9081 15.4174 62.244 15.4124Z" fill="#819EB0" fill-opacity="0.8"/>
</g>
</g>
</g>
</g>
</g>
</g>
<defs>
<clipPath id="clip0_0_1">
<rect width="1920" height="13222" fill="white" transform="translate(-260 -887)"/>
</clipPath>
<clipPath id="clip1_0_1">
<rect width="74.5021" height="32" fill="white" transform="translate(0 -4)"/>
</clipPath>
</defs>
</svg>

<svg width="75" height="24" fill="none" xmlns="http://www.w3.org/2000/svg"><path fill="#1E1E1E" d="M0 0h75v24H0z"/><g clip-path="url(#a)"><path fill="#fff" d="M-260-887h1920v13222H-260z"/><path fill="#fff" d="M-260-791h1920v916H-260z"/><g clip-path="url(#b)"><path fill="#fff" d="M0-4h74.502v32H0z"/><path fill-rule="evenodd" clip-rule="evenodd" d="M41.926 1.89C45.522-.471 50.222-.401 54.2.906c-.183 1.719-.47 3.423-.768 5.121-2.114-1.015-4.58-1.466-6.879-.876-1.084.257-2.154 1.604-1.253 2.615.877.898 1.993 1.468 3.11 2.038 1.242.633 2.485 1.268 3.403 2.355 2.02 1.976 1.946 5.304.57 7.617-1.457 2.442-4.26 3.72-6.989 4.086-3.085.322-6.3.13-9.192-1.064.146-.827.282-1.656.417-2.485.148-.91.296-1.82.46-2.726 2.5 1.293 5.403 1.942 8.191 1.323.946-.317 1.922-1.095 1.838-2.204-.272-1.15-1.353-1.728-2.337-2.253a26.45 26.45 0 0 1-.432-.234c-2.085-1.025-4.328-2.283-5.264-4.536-1.164-2.848.376-6.182 2.852-7.791zM0 .757C.761.364 1.606.391 2.44.417c.262.009.522.017.78.012C4.32.46 5.42.45 6.522.44 7.885.43 9.248.42 10.609.48c1.109-.005 2.06.916 2.213 1.99.442 2.14.862 4.284 1.283 6.43.315 1.608.63 3.217.955 4.824l.002.005c.122.552.22 1.113.32 1.673.054.305.107.61.165.912 1.636-4.462 3.29-8.921 4.944-13.38V2.93L21.417.44c2.134.024 4.264.014 6.394 0a897.624 897.624 0 0 0-4.107 10.041c-1.79 4.427-3.58 8.854-5.462 13.242-1.58-.05-3.162-.044-4.743-.038l-1.497.003c-.981-3.583-1.927-7.176-2.872-10.769-.831-3.157-1.662-6.313-2.517-9.463C4.685 2.298 2.549 1.595.424.895L0 .756zM36.22.43a406.16 406.16 0 0 1-6.017 0c-.502 3.222-1.028 6.441-1.555 9.66-.741 4.531-1.483 9.062-2.154 13.603 2 .005 3.996.005 5.992 0 .715-4.61 1.463-9.214 2.211-13.818.511-3.148 1.023-6.296 1.524-9.445zm25.43 2.385C62.05 1.744 62.844.58 64.097.516c1.148-.08 2.3-.069 3.452-.056.696.007 1.39.014 2.085.001 1.06 4.985 2.1 9.972 3.138 14.958.576 2.763 1.151 5.524 1.73 8.285-.926.003-1.852.004-2.778.005l-2.779.005a162.69 162.69 0 0 1-.748-3.506h-1.542c-2.055.001-4.107.002-6.16-.01a148.74 148.74 0 0 1-1.277 3.511c-2.1 0-4.2 0-6.3.005 1.315-3.155 2.635-6.309 3.955-9.462l.002-.004c1.595-3.81 3.19-7.62 4.775-11.434zm.594 12.598c.421-1.083.814-2.178 1.206-3.272.65-1.815 1.301-3.63 2.082-5.39.274 2.148.74 4.265 1.205 6.38v.003c.168.761.336 1.522.494 2.284-1.664 0-3.323 0-4.987-.005z" fill="#819EB0" fill-opacity=".8"/></g></g><defs><clipPath id="a"><path fill="#fff" transform="translate(-260 -887)" d="M0 0h1920v13222H0z"/></clipPath><clipPath id="b"><path fill="#fff" transform="translate(0 -4)" d="M0 0h74.502v32H0z"/></clipPath></defs></svg>
